components/Common/Svg/svgs/prototyping.svg

<svg
  width="40"
  height="32"
  viewBox="0 0 40 32"
  fill="none"
  xmlns="http://www.w3.org/2000/svg"
>
  <path
    d="M38.4252 0H23.937C23.0687 0 22.3622 0.706457 22.3622 1.5748V5.66937C20.4953 6.03252 19.2126 7.72417 19.2126 9.52756V12.2055C19.2126 12.6394 19.5661 12.9929 20 12.9929C20.4339 12.9929 20.7874 12.6394 20.7874 12.2055V9.52756C20.7893 8.50354 21.4475 7.6289 22.3622 7.30244V29.9213C22.3622 30.7896 23.0687 31.4961 23.937 31.4961H38.4252C39.2935 31.4961 40 30.7896 40 29.9213V1.5748C40 0.706457 39.2935 0 38.4252 0ZM38.4252 29.9213H23.937V1.5748H38.4252L38.4262 29.9212L38.4252 29.9213ZM3.14961 16.4567C3.14961 16.0219 3.5022 15.6693 3.93701 15.6693H8.8189C9.2537 15.6693 9.6063 16.0219 9.6063 16.4567C9.6063 16.8915 9.2537 17.2441 8.8189 17.2441H3.93701C3.5022 17.2441 3.14961 16.8915 3.14961 16.4567ZM3.14961 19.6063C3.14961 19.1715 3.5022 18.8189 3.93701 18.8189H13.7008C14.1356 18.8189 14.4882 19.1715 14.4882 19.6063C14.4882 20.0411 14.1356 20.3937 13.7008 20.3937H3.93701C3.5022 20.3937 3.14961 20.0411 3.14961 19.6063ZM3.14961 3.93701C3.14961 3.5022 3.5022 3.14961 3.93701 3.14961H13.7008C14.1356 3.14961 14.4882 3.5022 14.4882 3.93701C14.4882 4.37181 14.1356 4.72441 13.7008 4.72441H3.93701C3.5022 4.72441 3.14961 4.37181 3.14961 3.93701ZM36.8504 16.8504C36.8504 17.2852 36.4978 17.6378 36.063 17.6378H26.2992C25.8644 17.6378 25.5118 17.2852 25.5118 16.8504C25.5118 16.4156 25.8644 16.063 26.2992 16.063H36.063C36.4978 16.063 36.8504 16.4156 36.8504 16.8504ZM36.8504 20C36.8504 20.4348 36.4978 20.7874 36.063 20.7874H26.2992C25.8644 20.7874 25.5118 20.4348 25.5118 20C25.5118 19.5652 25.8644 19.2126 26.2992 19.2126H36.063C36.4978 19.2126 36.8504 19.5652 36.8504 20ZM31.9685 23.1496C31.9685 23.5844 31.6159 23.937 31.1811 23.937H26.2992C25.8644 23.937 25.5118 23.5844 25.5118 23.1496C25.5118 22.7148 25.8644 22.3622 26.2992 22.3622H31.1811C31.6159 22.3622 31.9685 22.7148 31.9685 23.1496ZM36.063 3.14961H26.2992C25.8644 3.14961 25.5118 3.5022 25.5118 3.93701V13.7008C25.5118 14.1356 25.8644 14.4882 26.2992 14.4882H36.063C36.4978 14.4882 36.8504 14.1356 36.8504 13.7008V3.93701C36.8504 3.5022 36.4978 3.14961 36.063 3.14961ZM35.2756 12.9134H27.0866V4.72441H35.2756V12.9134ZM20 10.5047C19.5661 10.5047 19.2126 10.8575 19.2126 11.2921V21.9685C19.2107 22.9925 18.5525 23.8671 17.6378 24.1936V1.5748C17.6378 0.706457 16.9313 0 16.063 0H1.5748C0.706457 0 0 0.706457 0 1.5748V29.9213C0 30.7896 0.706457 31.4961 1.5748 31.4961H16.063C16.9313 31.4961 17.6378 30.7896 17.6378 29.9213V25.8269C19.3676 25.494 20.7874 23.937 20.7874 21.9685V11.2921C20.7874 10.8575 20.4339 10.5047 20 10.5047ZM16.063 29.9213H1.5748V1.5748H16.063L16.0638 24.3307H14.4882C14.4882 23.0282 13.4285 21.9685 12.126 21.9685H5.51181C4.20929 21.9685 3.14961 23.0282 3.14961 24.3307V25.9055C3.14961 27.208 4.20929 28.2677 5.51181 28.2677H12.126C13.4285 28.2677 14.4882 27.208 14.4882 25.9055H16.0639L16.064 29.9212L16.063 29.9213ZM12.9134 25.9055C12.9134 26.3397 12.5602 26.6929 12.126 26.6929H5.51181C5.07764 26.6929 4.72441 26.3397 4.72441 25.9055V24.3307C4.72441 23.8965 5.07764 23.5433 5.51181 23.5433H12.126C12.5602 23.5433 12.9134 23.8965 12.9134 24.3307V25.9055Z"
    fill="#161616"
  ></path>
</svg>

<svg width="40" height="32" viewBox="0 0 40 32" fill="none" xmlns="http://www.w3.org/2000/svg"><path d="M38.425 0H23.937c-.868 0-1.575.706-1.575 1.575v4.094c-1.867.364-3.15 2.055-3.15 3.859v2.678a.789.789 0 0 0 1.575 0V9.527a2.373 2.373 0 0 1 1.575-2.226v22.62c0 .868.707 1.574 1.575 1.574h14.488c.869 0 1.575-.706 1.575-1.575V1.575C40 .706 39.294 0 38.425 0Zm0 29.921H23.937V1.575h14.488l.001 28.346ZM3.15 16.457c0-.435.352-.788.787-.788h4.882a.787.787 0 0 1 0 1.575H3.937a.787.787 0 0 1-.787-.787Zm0 3.15c0-.435.352-.788.787-.788h9.764a.787.787 0 0 1 0 1.575H3.937a.787.787 0 0 1-.787-.788Zm0-15.67c0-.435.352-.787.787-.787h9.764a.787.787 0 0 1 0 1.574H3.937a.787.787 0 0 1-.787-.787Zm33.7 12.913a.787.787 0 0 1-.787.788h-9.764a.787.787 0 0 1 0-1.575h9.764c.435 0 .787.353.787.787Zm0 3.15a.787.787 0 0 1-.787.787h-9.764a.787.787 0 0 1 0-1.574h9.764c.435 0 .787.352.787.787Zm-4.882 3.15a.787.787 0 0 1-.787.787H26.3a.787.787 0 0 1 0-1.575h4.882c.435 0 .787.353.787.788Zm4.095-20h-9.764a.787.787 0 0 0-.787.787v9.764c0 .435.352.787.787.787h9.764a.787.787 0 0 0 .787-.787V3.937a.787.787 0 0 0-.787-.787Zm-.787 9.763h-8.19V4.724h8.19v8.19ZM20 10.505a.788.788 0 0 0-.787.787v10.676a2.373 2.373 0 0 1-1.575 2.226V1.574C17.638.707 16.93 0 16.063 0H1.575C.706 0 0 .706 0 1.575V29.92c0 .869.706 1.575 1.575 1.575h14.488c.868 0 1.575-.706 1.575-1.575v-4.094a3.926 3.926 0 0 0 3.15-3.859V11.292a.788.788 0 0 0-.788-.787ZM16.063 29.92H1.575V1.575h14.488V24.33h-1.575a2.365 2.365 0 0 0-2.362-2.363H5.512a2.365 2.365 0 0 0-2.362 2.363v1.575a2.365 2.365 0 0 0 2.362 2.362h6.614a2.365 2.365 0 0 0 2.362-2.363h1.576v4.016h-.001Zm-3.15-4.015a.788.788 0 0 1-.787.787H5.512a.788.788 0 0 1-.788-.788v-1.574c0-.434.354-.788.788-.788h6.614c.434 0 .787.354.787.788v1.575Z" fill="#161616"/></svg>
